----------------------------------------------------------------------------------------------------
C8 D#1 R1 C8 C1 C1 C1 C2. G#1 R1 R1 R1 G96 G96 D#96 D#48 C#96 C96 C#1 C96 C48  C16. G1 C8 O2 O1 C8 O1 G#8 O1 G#1 C1 C1 C1 C96 D16 G96 G96 E4. G96 D#96 C1 C96 D#96 G96 G96 G96 G96 D#96 C1 O1     F48  C1 O1       C96 C1 E1 E1 E1 E4. E1 C96 E96 D#1 E96 E1 E1 C1 E1 C1 O1 C1 C2 C2 C2 F#2 C2 T242 C24 O3 C2 C2 C1 C2 C1 C2. C#2 D24 D1 E2. E2. E2. F8 C2. A2 A#32 D2. E2 E48 E2 F16. G#1 E8 D#4 C4 G#2 G#2 G#2 C#12 G#1 E16 B3 G#3 E2 G2 E2 A12 D3 C3 O5      D4 G#4 C4 C2 C2 C2 C2. C1 D3 D1 D96 E96 E96 E96 G#96 C96 A#3 A#2. A#1 F1 F1 F1 A1 C#1 C1 C8 E12 C2 C#8 C#16. C2. C#1 C1 F1 C#3 D3 D1 G#2 C2 A#1 C1 C8 F#12 F#3 C#24 A8 G#2 C8. C1 C#2 A1 G#1 C1 D1 D1 C1 C1 C1       C1  C1 C1 C1 C1 C1 C1 C1 C1 C#96 C#96 C#96 C#96 C#96 C#96 C1 B96 A#1 D1 A#1 A#1 D1 A#1 C1 C1 C1 C1 C1 C1 E4. E3 G#1 G#1 G#1 G#4. G#24 G2. E6 F8 C1 C1 C1 C1 C1 C1 T10 C1 C1 C1 O1 C8  O3 C8 E1 E1 E1 C2. C2. C2. C2. C1 E1 E1 C1 G1 C48 G#1 G#1 G#1 C2 C2 T176 F1 B1 O1 C1 C2 C2 C2 C3 E8 C1 C1 C1 G#24 G1 T192 R1 G#1 G#1 C1 C1 C4. C96 C#96 C#96 D#96 D#96 D#96 D48 C96 C8. T113 D#2. D#1 D2. C1 R1 O1     G#1 E1 R1 F#1 G1 C6 G#96 R1 D#96 F96  O0 G1 G6 C#96 C1 C2. E2 C6 C2 O1  F#2. C2.       F1 B48 A#2 G#2 G#2 G#1 E1 C1 C48 C6 C4. C2. C2. C2 C1 G#48 F96 E2 C1 D#24 E3 C3 C1 C1 C1 C1 D#24 E48 C8. C2 C2 B8 B3 A#96 C16. A#1 T192  C1 C4. C2. C1 C1 C1 C1 C1 C1 C2. G#4. A8 G#16. A4. D#6 C2. C3 A8 R1 R1 E1 E1 G#1 C1 G#1 C1 C1 C1 C1 C1 C1 C1 R6 A16. D2. G96 F#2 A3 A3 G#8 C2. C1 C1 C1 C1 C1 C1 C1  A16. G#3  E8. D16. D16. C#2. C1 C1 C1 C1 C1 C1 C1 G#1 G#8 A3 A3 F#2 G96 D2. A16. R6 C1 C1 C1 C1 C1 C1 C1 C2. C#2. D16. D16. E8.  G#3 A16.   E8. B2 G32 G8. A#12 F3  A#2. G#6 D#2. G24 G24  A#1 C4. G#96 E2 F#2. A48 G48 A#8 R12 F3 R48 A#3 C1 C#48 G96  D#1 C1 C24 G#48  R2 D8 E12 B3 G2 C#48  R48  R8. G#3 D#1 G2 C8. C16. O4  F2 D16. A24  F#48 C4 O4 O4  E8 A24  T194 B8. C1 C16 C6 F#16  C8. C24 C1 D#16. B1  G#1 C8 G#3  E2. G#12 C#6 D#48  G3 E12 C3 C1 C#3 F#8 R1 C1 C1 C#2 F2. C#8 D24  R48 G#3 C1 C24 G#48 R8. R2 C1 C1 D#1 G2 C#12 E1 O1 G2  G#96 G#1 A#3 C4. G#4 C2 C8 C3 C1 C2 C3 R6 R4. R3 R3 C2. C3 G#2 D3 C#6 C#4. C3 C#4 C2.  G#1 C1 C4. C4. C4. G#4. C1 C1 R2. D3 F#8 E8 D1 A#8 G#1 D16 C1 G96 E1 E6 C6 G6 G6 G6 C1 C1 C1 C6 C6 G6 G6 G6 C6 G6 G6 G6 G6 G6 G6 G1 C6 G6 G6 G6 G6 G6 G6 G1 D#16 G8 F#4 C#1 E1 C#1 E1 F1 C1 C1 C6 C#96 C#96 C#96 C#96 C#96 B4 C#48 E32 C#2. C3 C#4 C4 C#2. C1 C1 R1 O1 O1 O1 O1 O1 C4 E1 E1 F8 F#24 C8 C8 C1 C6 C#8 C6 C#8 C24 C8 C8 C1 E4 C8. C4 D#4 F#1 D2. D12 C2. R1 D#1 R1 D#1 F#1 D1 D1 C1 C1 E1 C1 C1 C1 C#96 C#96 C#96 C1 F96 C1 G96 E1 F96 E3 F2 C1 C2 C1 C1 C1    C1  C2  F#2 E12 C#96 C#96 C#96 C#96 C96 C4. C1 C1 E2 F1 E1 F8 E48 D#2. C24 C4.   O1 R1 C1 C1 E2 C12 C2 C#12 G2 G#24 D#1 R1 O1 O1 T224 T224 O1 O1   B96 B96 B96 B96   C96 C96 C6 C6 C6 C6 C96 C96       G6 G6 G6 G1 G1 C1 C1 C1 G6 G6 G6 G1 G6 C6 G1 G1 G1 C1 C1 C2 C2 C2 G48 C1 G6 C6 G1 G1 C1 C1 C1 C1 D#8 G4. E96 D#96 G96 G96 D#96 C96 C1 C4. C96 D#96 G96 G96 G96 D#96 D#4 R48 O2     O1 C1 R1 O1      E4. D#1 E24 F1 C#1 C#4. C2 C1 E96 D#4. E24 F4. C#8 F16 D4. D#8 R1 C1 C2 C2 C1 R1 C1 C2. O3 R24 D#1 R8 C#8  R3 C#24 C1 C#1 C#4 C#4 C#4 C#4 C#4 C#4 C6 D#8 D#96 D#96 D#96 D#96 D#96 D#96 C2. C3 A#4 A#4 A#3 A#4 A#3 A#3 T24    C#4 F4 D2. C#8 D4. C#1 R4. C1 D#96 F96 D4. C#24 D4. C#24 C4. C1 A#3 A#1 G#1 D1 C3 C16. C2 C2.  R3 D#8 R1 D#1 R1 C1 T192 G#1 G#1 C1 C2. C2. C2. C6 C#8 D4. D96 E96 E48 A48 A48 C#96 F#6 G16     T248 G8 G24   C1 A1 C1 G#3 G#1 G#1 G#1 A#3 A16 G#96 D96 D4 D16. D32 D4 C8 B2. F#2. D16 E16 C32 D3 R3 E12 B3 O5  E8 D24  R24 G#1 C1 C1 C1 C#3 C1 C1 C1 D#3 F16 F8 F24 F3 F#1 G96 C1 E3 G#3 C24 C12 C#12 C2 F1 C1 F24 A24 C#24 C#12 D#12 G12 F2 C1 D12 C1 C1 C#96 C#1 C#6 A1  D16 E1 F96 F96 F96 F96 C#96 C#96 F3 C1 C2  C12  C8  C2      T15 A#2. F#48 F#96 F#2. F#1 D#48 C1 C96 D2. F#48 F#96 F#96 F#2. D#48 C8. O1 G#4 G8.  G24 C1 O1 G#3 G8.  G24 C96 C1 E2. F#1 F#1 D1 D1 E96 E96 D1 E96 F#1 F#1 D1 D1 E1 O1 C1 G#2 C8. C8. C3 C3  O3 C3 O3 C8. C8. C3 C3 C2 F#96 F#96 F#96 C1 G48 G48 G48 C1 G96 G96 G96 G96 G96 G96 G96 G96 O0 O0 O0 C1    C1----------------------------------------------------------------------------------------------------
C6 C2 O1  F#2. C2.       F1 B48 A#2 G#2 G#2 G#1 E1 C1 C48 C6 C4. C2. C2. C2 C1 G#48 F96 E2 C1 D#24 E3 C3 C1 C1 C1 C1 D#24 E48 C8. C2 C2 B8 B3 A#96 C16. A#1 T192  C1 C4. C2. C1 C1 C1 C1 C1 C1 C2. G#4. A8 G#16. A4. D#6 C2. C3 A8 R1 R1 E1 E1 G#1 C1 G#1 C1 C1 C1 C1 C1 C1 C1 R6 A16. D2. G96 F#2 A3 A3 G#8 C2. C1 C1 C1 C1 C1 C1 C1  A16. G#3  E8. D16. D16. C#2. C1 C1 C1 C1 C1 C1 C1 G#1 G#8 A3 A3 F#2 G96 D2. A16. R6 C1 C1 C1 C1 C1 C1 C1 C2. C#2. D16. D16. E8.  G#3 A16.   E8. B2 G32 G8. A#12 F3  A#2. G#6 D#2. G24 G24  A#1 C4. G#96 E2 F#2. A48 G48 A#8 R12 F3 R48 A#3 C1 C#48 G96  D#1 C1 C24 G#48  R2 D8 E12 B3 G2 C#48  R48  R8. G#3 D#1 G2 C8. C16. O4  F2 D16. A24  F#48 C4 O4 O4  E8 A24  T194 B8. C1 C16 C6 F#16  C8. C24 C1 D#16. B1  G#1 C8 G#3  E2. G#12 C#6 D#48  G3 E12 C3 C1 C#3 F#8 R1 C1 C1 C#2 F2. C#8 D24  R48 G#3 C1 C24 G#48 R8. R2 C1 C1 D#1 G2 C#12 E1 O1 G2  G#96 G#1 A#3 C4. G#4 C2 C8 C3 C1 C2 C3 R6 R4. R3 R3 C2. C3 G#2 D3 C#6 C#4. C3 C#4 C2.  G#1 C1 C4. C4. C4. G#4. C1 C1 R2. D3 F#8 E8 D1 A#8 G#1 D16 C1 G96 E1 E6 C6 G6 G6 G6 C1 C1 C1 C6 C6 G6 G6 G6 C6 G6 G6 G6 G6 G6 G6 G1 C6 G6 G6 G6 G6 G6 G6 G1 D#16 G8 F#4 C#1 E1 C#1 E1 F1 C1 C1 C6 C#96 C#96 C#96 C#96 C#96 B4 C#48 E32 C#2. C3 C#4 C4 C#2. C1 C1 R1 O1 O1 O1 O1 O1 C4 E1 E1 F8 F#24 C8 C8 C1 C6 C#8 C6 C#8 C24 C8 C8 C1 E4 C8. C4 D#4 F#1 D2. D12 C2. R1 D#1 R1 D#1 F#1 D1 D1 C1 C1 E1 C1 C1 C1 C#96 C#96 C#96 C1 F96 C1 G96 E1 F96 E3 F2 C1 C2 C1 C1 C1    C1  C2  F#2 E12 C#96 C#96 C#96 C#96 C96 C4. C1 C1 E2 F1 E1 F8 E48 D#2. C24 C4.   O1 R1 C1 C1 E2 C12 C2 C#12 G2 G#24 D#1 R1 O1 O1 T224 T224 O1 O1   B96 B96 B96 B96   C96 C96 C6 C6 C6 C6 C96 C96       G6 G6 G6 G1 G1 C1 C1 C1 G6 G6 G6 G1 G6 C6 G1 G1 G1 C1 C1 C2 C2 C2 G48 C1 G6 C6 G1 G1 C1 C1 C1 C1 D#8 G4. E96 D#96 G96 G96 D#96 C96 C1 C4. C96 D#96 G96 G96 G96 D#96 D#4 R48 O2     O1 C1 R1 O1      E4. D#1 E24 F1 C#1 C#4. C2 C1 E96 D#4. E24 F4. C#8 F16 D4. D#8 R1 C1 C2 C2 C1 R1 C1 C2. O3 R24 D#1 R8 C#8  R3 C#24 C1 C#1 C#4 C#4 C#4 C#4 C#4 C#4 C6 D#8 D#96 D#96 D#96 D#96 D#96 D#96 C2. C3 A#4 A#4 A#3 A#4 A#3 A#3 T24    C#4 F4 D2. C#8 D4. C#1 R4. C1 D#96 F96 D4. C#24 D4. C#24 C4. C1 A#3 A#1 G#1 D1 C3 C16. C2 C2.  R3 D#8 R1 D#1 R1 C1 T192 G#1 G#1 C1 C2. C2. C2. C6 C#8 D4. D96 E96 E48 A48 A48 C#96 F#6 G16     T248 G8 G24   C1 A1 C1 G#3 G#1 G#1 G#1 A#3 A16 G#96 D96 D4 D16. D32 D4 C8 B2. F#2. D16 E16 C32 D3 R3 E12 B3 O5  E8 D24  R24 G#1 C1 C1 C1 C#3 C1 C1 C1 D#3 F16 F8 F24 F3 F#1 G96 C1 E3 G#3 C24 C12 C#12 C2 F1 C1 F24 A24 C#24 C#12 D#12 G12 F2 C1 D12 C1 C1 C#96 C#1 C#6 A1  D16 E1 F96 F96 F96 F96 C#96 C#96 F3 C1 C2  C12  C8  C2      T15 A#2. F#48 F#96 F#2. F#1 D#48 C1 C96 D2. F#48 F#96 F#96 F#2. D#48 C8. O1 G#4 G8.  G24 C1 O1 G#3 G8.  G24 C96 C1 E2. F#1 F#1 D1 D1 E96 E96 D1 E96 F#1 F#1 D1 D1 E1 O1 C1 G#2 C8. C8. C3 C3  O3 C3 O3 C8. C8. C3 C3 C2 F#96 F#96 F#96 C1 G48 G48 G48 C1 G96 G96 G96 G96 G96 G96 G96 G96 O0 O0 O0 C1    C1----------------------------------------------------------------------------------------------------
D4. C#1 R4. C1 D#96 F96 D4. C#24 D4. C#24 C4. C1 A#3 A#1 G#1 D1 C3 C16. C2 C2.  R3 D#8 R1 D#1 R1 C1 T192 G#1 G#1 C1 C2. C2. C2. C6 C#8 D4. D96 E96 E48 A48 A48 C#96 F#6 G16     T248 G8 G24   C1 A1 C1 G#3 G#1 G#1 G#1 A#3 A16 G#96 D96 D4 D16. D32 D4 C8 B2. F#2. D16 E16 C32 D3 R3 E12 B3 O5  E8 D24  R24 G#1 C1 C1 C1 C#3 C1 C1 C1 D#3 F16 F8 F24 F3 F#1 G96 C1 E3 G#3 C24 C12 C#12 C2 F1 C1 F24 A24 C#24 C#12 D#12 G12 F2 C1 D12 C1 C1 C#96 C#1 C#6 A1  D16 E1 F96 F96 F96 F96 C#96 C#96 F3 C1 C2  C12  C8  C2      T15 A#2. F#48 F#96 F#2. F#1 D#48 C1 C96 D2. F#48 F#96 F#96 F#2. D#48 C8. O1 G#4 G8.  G24 C1 O1 G#3 G8.  G24 C96 C1 E2. F#1 F#1 D1 D1 E96 E96 D1 E96 F#1 F#1 D1 D1 E1 O1 C1 G#2 C8. C8. C3 C3  O3 C3 O3 C8. C8. C3 C3 C2 F#96 F#96 F#96 C1 G48 G48 G48 C1 G96 G96 G96 G96 G96 G96 G96 G96 O0 O0 O0 C1    C1----------------------------------------------------------------------------------------------------
G96 G96 G96 G96 G96 G96 C1  F#48 A48  A48 F#48  C1        G96 G96 C1 D2. C1 C1 C1 C96 C1 F4 C1 G16 F#2. E1 E1 E1   C1 G#3 C1 C1 C1 T0 A#12 C1  G#8. C2 C2 C2 C1 G96 G4. G4. E48 E8 G12 G4.